assets/svg/1f1f8-1f1ec.svg

<svg xmlns="http://www.w3.org/2000/svg" viewBox="0 0 64 64" enable-background="new 0 0 64 64"><path fill="#f9f9f9" d="M32,62c16.568,0,30-13.432,30-30H2C2,48.568,15.432,62,32,62z"/><path fill="#ed4c5c" d="M32,2C15.432,2,2,15.431,2,32h60C62,15.431,48.568,2,32,2z"/><g fill="#f9f9f9"><path d="m21.232 17.472l-1.232-.945 1.525-.005.475-1.522.477 1.522 1.523.005-1.23.946.47 1.527-1.24-.94-1.234.94z"/><path d="m29.23 17.472l-1.23-.945 1.525-.005.475-1.522.477 1.522 1.523.005-1.23.946.47 1.527-1.24-.94-1.234.94z"/><path d="m22.23 22.472l-1.23-.945 1.525-.005.475-1.522.477 1.522 1.523.005-1.23.946.47 1.527-1.24-.94-1.234.94z"/><path d="m28.23 22.472l-1.23-.945 1.525-.005.475-1.522.477 1.522 1.523.005-1.23.946.47 1.527-1.24-.94-1.234.94z"/><path d="m25.23 14.472l-1.23-.945 1.525-.005.475-1.522.477 1.522 1.523.005-1.23.946.47 1.527-1.24-.94-1.234.94z"/><path d="m24.412 27.958c-4.768 0-8.633-4.056-8.633-9.06s3.865-9.06 8.633-9.06c.35 0 .691.028 1.031.07-1.201-.58-2.533-.91-3.943-.91-5.244 0-9.5 4.477-9.5 10s4.256 10 9.5 10c1.633 0 3.162-.438 4.5-1.201-.516.101-1.045.159-1.588.159"/></g></svg>

<svg xmlns="http://www.w3.org/2000/svg" width="64" height="64" viewBox="0 0 64 64"><path fill="#F9F9F9" d="M32 62c16.568 0 30-13.432 30-30H2c0 16.568 13.432 30 30 30z"/><path fill="#ED4C5C" d="M32 2C15.432 2 2 15.431 2 32h60C62 15.431 48.568 2 32 2z"/><path fill="#F9F9F9" d="M21.232 17.472L20 16.527l1.525-.005L22 15l.477 1.522 1.523.005-1.23.946.466 1.527L22 18.061 20.766 19zM29.232 17.472L28 16.527l1.525-.005L30 15l.477 1.522 1.523.005-1.23.946.466 1.527L30 18.061 28.766 19zM22.232 22.472L21 21.527l1.525-.005L23 20l.477 1.522 1.523.005-1.23.946.466 1.527L23 23.061 21.766 24zM28.232 22.472L27 21.527l1.525-.005L29 20l.477 1.522 1.523.005-1.23.946.466 1.527L29 23.061 27.766 24zM25.232 14.472L24 13.527l1.525-.005L26 12l.477 1.522 1.523.005-1.23.946.466 1.527L26 15.061 24.766 16z"/><path fill="#F9F9F9" d="M24.412 27.958c-4.768 0-8.633-4.056-8.633-9.059s3.865-9.059 8.633-9.059c.35 0 .691.028 1.031.07A9.03 9.03 0 0 0 21.5 9C16.256 9 12 13.477 12 19s4.256 10 9.5 10a9.042 9.042 0 0 0 4.5-1.201 8.247 8.247 0 0 1-1.588.159z"/></svg>
